X:1
T:James Gibb editions
T:Amor lasciami stare - Antonelli da Rimini
%%score [ 1 2 3 ]
L:1/8
Q:1/4=108
M:2/2
K:C
V:1 treble-8 nm="Tenor I" snm="T I"
V:2 treble-8 nm="Tenor II" snm="T II"
V:3 bass nm="Bass" snm="B"
V:1
"^Amor lasciami stare""^Cornelio Antonelli da Rimini\n( C16th )" e4 e4 | e4 d2 d2 | e4 e4 | g4 f4 | %4
w: A- mor|la- scia- mi|sta- re|Deh non|
w: Va' via|dal mio pen-|sie- ro|Cru- del|
[M:2/2][K:treble-8] e2 d4 e2 | e4 e4 | d4 d4 | d2 c4 c2 | B4 B4 |[M:2/2][K:treble-8] e4 c4 | %10
w: mi tor- men-|ta- re|Poi ch'io|vi- vo lon-|ta- no|Dal mio|
w: ed em- pio~~ar-|cie- ro|Ch'io sem-|pre~~es- ser li|vo- glio|Fe- del|
 B2 A4 A2 | A4 B2 c2- | c2 c2 A4 | ^c8 :| %14
w: so- le sos-|pi- ran- do|* in- va-|no.|
w: fì- no~~a la|mor- te co\-|* me so-|glio.|
V:2
 c4 c4 | c4 B2 B2 | c4 c4 | c4 d4 |[M:2/2][K:treble-8] c2 B4 c2 | c4 c4 | B4 B4 | B2 A4 A2 | %8
w: A- mor|la- scia- mi|sta- re|Deh non|mi tor- men-|ta- re|Poi ch'io|vi- vo lon-|
w: Va' via|dal mio pen-|sie- ro|Cru- del|ed em- pio~~ar-|cie- ro|Ch'io sem-|pre~~es- ser li|
 ^G4 G4 |[M:2/2][K:treble-8] !courtesy!=G4 A4 | G2 ^F4 F2 | ^F4 ^G2 A2- | A2 A2 (A2 ^G2) | A8 :| %14
w: ta- no|Dal mio|so- le sos-|pi- ran- do|* in- va\- *|no.|
w: vo- glio|Fe- del|fì- no~~a la|mor- te co\-|* me so\- *|glio.|
V:3
 C,4 C,4 | C,4 G,2 G,2 | C,4 C,4 | C,4 D,4 |[M:2/2] C,2 G,4 C,2 | C,4 C,4 | G,4 G,4 | G,2 F,4 F,2 | %8
w: A- mor|la- scia- mi|sta- re|Deh non|mi tor- men-|ta- re|Poi ch'io|vi- vo lon-|
w: Va' via|dal mio pen-|sie- ro|Cru- del|ed em- pio~~ar-|cie- ro|Ch'io sem-|pre~~es- ser li|
 E,4 E,4 |[M:2/2] C,4 F,4 | E,2 D,4 D,2 | D,4 E,2 F,2- | F,2 F,2 E,4 | A,,8 :| %14
w: ta- no|Dal mio|so- le sos-|pi- ran- do|* in- va-|no.|
w: vo- glio|Fe- del|fì- no~~a la|mor- te co\-|* me so-|glio.|

